;FLAVOR:Marlin
;TIME:505
;Filament used: 0.484389m
;Layer height: 0.24
;MINX:101.847
;MINY:98.335
;MINZ:0.3
;MAXX:117.3
;MAXY:121.665
;MAXZ:6.06
;Generated with Cura_SteamEngine 4.12.1
M140 S60
M105
M190 S60
M104 S210
M105
M109 S210
M82 ;absolute extrusion mode
M201 X500.00 Y500.00 Z100.00 E5000.00 ;Setup machine max acceleration
M203 X500.00 Y500.00 Z10.00 E50.00 ;Setup machine max feedrate
M204 P500.00 R1000.00 T500.00 ;Setup Print/Retract/Travel acceleration
M205 X8.00 Y8.00 Z0.40 E5.00 ;Setup Jerk
M220 S100 ;Reset Feedrate
M221 S100 ;Reset Flowrate

G28 ;Home

G92 E0 ;Reset Extruder
G1 Z2.0 F3000 ;Move Z Axis up
G1 X10.1 Y20 Z0.28 F5000.0 ;Move to start position
G1 X10.1 Y200.0 Z0.28 F1500.0 E15 ;Draw the first line
G1 X10.4 Y200.0 Z0.28 F5000.0 ;Move to side a little
G1 X10.4 Y20 Z0.28 F1500.0 E30 ;Draw the second line
G92 E0 ;Reset Extruder
G1 Z2.0 F3000 ;Move Z Axis up

G92 E0
G92 E0
G1 F2400 E-3
;LAYER_COUNT:25
;LAYER:0
M107
;MESH:dupontHolder.stl
G0 F6000 X116.9 Y120.4 Z0.3
;TYPE:WALL-INNER
G1 F2400 E0
G1 F1200 X103.1 Y120.4 E0.68848
G1 X103.1 Y99.6 E1.7262
G1 X116.9 Y99.6 E2.41469
G1 X116.9 Y120.4 E3.4524
G0 F6000 X117.3 Y120.8
;TYPE:WALL-OUTER
G1 F1200 X102.7 Y120.8 E4.1808
G1 X102.7 Y99.2 E5.25843
G1 X117.3 Y99.2 E5.98682
G1 X117.3 Y120.8 E7.06445
G0 F6000 X117.03 Y120.53
G0 X116.79 Y120.01
G0 X116.51 Y120.01
;TYPE:SKIN
G1 F1200 X103.49 Y120.01 E7.71402
G1 X103.49 Y99.99 E8.71282
G1 X116.51 Y99.99 E9.3624
G1 X116.51 Y120.01 E10.3612
G0 F6000 X116.79 Y120.01
G0 X104.009 Y120.29
G0 X104.009 Y119.848
G1 F1200 X103.649 Y119.488 E10.3866
G0 F6000 X103.649 Y118.922
G1 F1200 X104.575 Y119.848 E10.45193
G0 F6000 X105.141 Y119.848
G1 F1200 X103.649 Y118.356 E10.5572
G0 F6000 X103.649 Y117.791
G1 F1200 X105.706 Y119.848 E10.70233
G0 F6000 X106.272 Y119.848
G1 F1200 X103.649 Y117.225 E10.8874
G0 F6000 X103.649 Y116.659
G1 F1200 X106.838 Y119.848 E11.1124
G0 F6000 X107.403 Y119.848
G1 F1200 X103.649 Y116.094 E11.37727
G0 F6000 X103.649 Y115.528
G1 F1200 X107.969 Y119.848 E11.68206
G0 F6000 X108.535 Y119.848
G1 F1200 X103.649 Y114.962 E12.0268
G0 F6000 X103.649 Y114.397
G1 F1200 X109.1 Y119.848 E12.4114
G0 F6000 X109.666 Y119.848
G1 F1200 X103.649 Y113.831 E12.83593
G0 F6000 X103.649 Y113.265
G1 F1200 X110.232 Y119.848 E13.30039
G0 F6000 X110.797 Y119.848
G1 F1200 X103.649 Y112.7 E13.80472
G0 F6000 X103.649 Y112.134
G1 F1200 X111.363 Y119.848 E14.34899
G0 F6000 X111.929 Y119.848
G1 F1200 X103.649 Y111.568 E14.93319
G0 F6000 X103.649 Y111.003
G1 F1200 X112.495 Y119.848 E15.55729
G0 F6000 X113.06 Y119.848
G1 F1200 X103.649 Y110.437 E16.22128
G0 F6000 X103.649 Y109.871
G1 F1200 X113.626 Y119.848 E16.92521
G0 F6000 X114.192 Y119.848
G1 F1200 X103.649 Y109.305 E17.66908
G0 F6000 X103.649 Y108.74
G1 F1200 X114.757 Y119.848 E18.45281
G0 F6000 X115.323 Y119.848
G1 F1200 X103.649 Y108.174 E19.27647
G0 F6000 X103.649 Y107.608
G1 F1200 X115.889 Y119.848 E20.14007
G0 F6000 X116.35 Y119.744
G1 F1200 X103.649 Y107.043 E21.03619
G0 F6000 X103.649 Y106.477
G1 F1200 X116.35 Y119.178 E21.93232
G0 F6000 X116.35 Y118.612
G1 F1200 X103.649 Y105.911 E22.82844
G0 F6000 X103.649 Y105.346
G1 F1200 X116.35 Y118.047 E23.72457
G0 F6000 X116.35 Y117.481
G1 F1200 X103.649 Y104.78 E24.62069
G0 F6000 X103.649 Y104.214
G1 F1200 X116.35 Y116.915 E25.51681
G0 F6000 X116.35 Y116.35
G1 F1200 X103.649 Y103.649 E26.41294
G0 F6000 X103.649 Y103.083
G1 F1200 X116.35 Y115.784 E27.30906
G0 F6000 X116.35 Y115.218
G1 F1200 X103.649 Y102.517 E28.20519
G0 F6000 X103.649 Y101.952
G1 F1200 X116.35 Y114.653 E29.10131
G0 F6000 X116.35 Y114.087
G1 F1200 X103.649 Y101.386 E29.99744
G0 F6000 X103.649 Y100.82
G1 F1200 X116.35 Y113.521 E30.89356
G0 F6000 X116.35 Y112.956
G1 F1200 X103.649 Y100.255 E31.78968
G0 F6000 X104.11 Y100.15
G1 F1200 X116.35 Y112.39 E32.65328
G0 F6000 X116.35 Y111.824
G1 F1200 X104.675 Y100.15 E33.47698
G0 F6000 X105.241 Y100.15
G1 F1200 X116.35 Y111.259 E34.26078
G0 F6000 X116.35 Y110.693
G1 F1200 X105.807 Y100.15 E35.00465
G0 F6000 X106.372 Y100.15
G1 F1200 X116.35 Y110.127 E35.70861
G0 F6000 X116.35 Y109.561
G1 F1200 X106.938 Y100.15 E36.37265
G0 F6000 X107.504 Y100.15
G1 F1200 X116.35 Y108.996 E36.99678
G0 F6000 X116.35 Y108.43
G1 F1200 X108.069 Y100.15 E37.58101
G0 F6000 X108.635 Y100.15
G1 F1200 X116.35 Y107.864 E38.12531
G0 F6000 X116.35 Y107.299
G1 F1200 X109.201 Y100.15 E38.62971
G0 F6000 X109.767 Y100.15
G1 F1200 X116.35 Y106.733 E39.09418
G0 F6000 X116.35 Y106.167
G1 F1200 X110.332 Y100.15 E39.51875
G0 F6000 X110.898 Y100.15
G1 F1200 X116.35 Y105.602 E39.90341
G0 F6000 X116.35 Y105.036
G1 F1200 X111.464 Y100.15 E40.24815
G0 F6000 X112.029 Y100.15
G1 F1200 X116.35 Y104.47 E40.55298
G0 F6000 X116.35 Y103.905
G1 F1200 X112.595 Y100.15 E40.81792
G0 F6000 X113.161 Y100.15
G1 F1200 X116.35 Y103.339 E41.04292
G0 F6000 X116.35 Y102.773
G1 F1200 X113.726 Y100.15 E41.22802
G0 F6000 X114.292 Y100.15
G1 F1200 X116.35 Y102.208 E41.37322
G0 F6000 X116.35 Y101.642
G1 F1200 X114.858 Y100.15 E41.47849
G0 F6000 X115.423 Y100.15
G1 F1200 X116.35 Y101.076 E41.54386
G0 F6000 X116.35 Y100.51
G1 F1200 X115.989 Y100.15 E41.5693
G0 F6000 X115.989 Y99.8
;MESH:NONMESH
G0 F300 X115.989 Y99.8 Z0.54
G0 F6000 X115.989 Y99.71
G0 X116.718 Y99.782
G0 X116.9 Y120.4
;TIME_ELAPSED:51.256853
;LAYER:1
M106 S85
;TYPE:WALL-INNER
;MESH:dupontHolder.stl
G1 F1800 X103.1 Y120.4 E42.12009
G1 X103.1 Y99.6 E42.95026
G1 X116.9 Y99.6 E43.50105
G1 X116.9 Y120.4 E44.33122
G0 F9000 X117.3 Y120.8
;TYPE:WALL-OUTER
G1 F1800 X102.7 Y120.8 E44.91394
G1 X102.7 Y99.2 E45.77604
G1 X117.3 Y99.2 E46.35876
G1 X117.3 Y120.8 E47.22086
G0 F9000 X117.03 Y120.53
G0 X116.79 Y120.01
G0 X116.51 Y120.01
;TYPE:SKIN
G1 F1800 X103.49 Y120.01 E47.74052
G1 X103.49 Y99.99 E48.53956
G1 X116.51 Y99.99 E49.05921
G1 X116.51 Y120.01 E49.85826
G0 F9000 X116.041 Y119.849
G1 F1800 X116.349 Y119.541 E49.87564
G0 F9000 X116.349 Y118.975
G1 F1800 X115.475 Y119.849 E49.92497
G0 F9000 X114.909 Y119.849
G1 F1800 X116.349 Y118.409 E50.00625
G0 F9000 X116.349 Y117.844
G1 F1800 X114.344 Y119.849 E50.11942
G0 F9000 X113.778 Y119.849
G1 F1800 X116.349 Y117.278 E50.26454
G0 F9000 X116.349 Y116.712
G1 F1800 X113.212 Y119.849 E50.44161
G0 F9000 X112.647 Y119.849
G1 F1800 X116.349 Y116.147 E50.65056
G0 F9000 X116.349 Y115.581
G1 F1800 X112.081 Y119.849 E50.89147
G0 F9000 X111.515 Y119.849
G1 F1800 X116.349 Y115.015 E51.16432
G0 F9000 X116.349 Y114.45
G1 F1800 X110.95 Y119.849 E51.46906
G0 F9000 X110.384 Y119.849
G1 F1800 X116.349 Y113.884 E51.80575
G0 F9000 X116.349 Y113.318
G1 F1800 X109.818 Y119.849 E52.17439
G0 F9000 X109.252 Y119.849
G1 F1800 X116.349 Y112.753 E52.57495
G0 F9000 X116.349 Y112.187
G1 F1800 X108.687 Y119.849 E53.00743
G0 F9000 X108.121 Y119.849
G1 F1800 X116.349 Y111.621 E53.47185
G0 F9000 X116.349 Y111.056
G1 F1800 X107.555 Y119.849 E53.96819
G0 F9000 X106.99 Y119.849
G1 F1800 X116.349 Y110.49 E54.49645
G0 F9000 X116.349 Y109.924
G1 F1800 X106.424 Y119.849 E55.05666
G0 F9000 X105.858 Y119.849
G1 F1800 X116.349 Y109.359 E55.64879
G0 F9000 X116.349 Y108.793
G1 F1800 X105.293 Y119.849 E56.27284
G0 F9000 X104.727 Y119.849
G1 F1800 X116.349 Y108.227 E56.92884
G0 F9000 X116.349 Y107.661
G1 F1800 X104.161 Y119.849 E57.61678
G0 F9000 X103.649 Y119.795
G1 F1800 X116.349 Y107.096 E58.3336
G0 F9000 X116.349 Y106.53
G1 F1800 X103.649 Y119.23 E59.05044
G0 F9000 X103.649 Y118.664
G1 F1800 X116.349 Y105.964 E59.76728
G0 F9000 X116.349 Y105.399
G1 F1800 X103.649 Y118.098 E60.4841
G0 F9000 X103.649 Y117.533
G1 F1800 X116.349 Y104.833 E61.20094
G0 F9000 X116.349 Y104.267
G1 F1800 X103.649 Y116.967 E61.91778
G0 F9000 X103.649 Y116.401
G1 F1800 X116.349 Y103.702 E62.6346
G0 F9000 X116.349 Y103.136
G1 F1800 X103.649 Y115.836 E63.35144
G0 F9000 X103.649 Y115.27
G1 F1800 X116.349 Y102.57 E64.06828
G0 F9000 X116.349 Y102.005
G1 F1800 X103.649 Y114.704 E64.7851
G0 F9000 X103.649 Y114.139
G1 F1800 X116.349 Y101.439 E65.50194
G0 F9000 X116.349 Y100.873
G1 F1800 X103.649 Y113.573 E66.21878
G0 F9000 X103.649 Y113.007
G1 F1800 X116.349 Y100.308 E66.9356
G0 F9000 X115.942 Y100.149
G1 F1800 X103.649 Y112.441 E67.62944
G0 F9000 X103.649 Y111.876
G1 F1800 X115.376 Y100.149 E68.29136
G0 F9000 X114.81 Y100.149
G1 F1800 X103.649 Y111.31 E68.92134
G0 F9000 X103.649 Y110.744
G1 F1800 X114.245 Y100.149 E69.51939
G0 F9000 X113.679 Y100.149
G1 F1800 X103.649 Y110.179 E70.08553
G0 F9000 X103.649 Y109.613
G1 F1800 X113.113 Y100.149 E70.61972
G0 F9000 X112.548 Y100.149
G1 F1800 X103.649 Y109.047 E71.12199
G0 F9000 X103.649 Y108.482
G1 F1800 X111.982 Y100.149 E71.59234
G0 F9000 X111.416 Y100.149
G1 F1800 X103.649 Y107.916 E72.03074
G0 F9000 X103.649 Y107.35
G1 F1800 X110.851 Y100.149 E72.43723
G0 F9000 X110.285 Y100.149
G1 F1800 X103.649 Y106.785 E72.81179
G0 F9000 X103.649 Y106.219
G1 F1800 X109.719 Y100.149 E73.15441
G0 F9000 X109.153 Y100.149
G1 F1800 X103.649 Y105.653 E73.46508
G0 F9000 X103.649 Y105.088
G1 F1800 X108.588 Y100.149 E73.74386
G0 F9000 X108.022 Y100.149
G1 F1800 X103.649 Y104.522 E73.99069
G0 F9000 X103.649 Y103.956
G1 F1800 X107.456 Y100.149 E74.20557
G0 F9000 X106.891 Y100.149
G1 F1800 X103.649 Y103.391 E74.38856
G0 F9000 X103.649 Y102.825
G1 F1800 X106.325 Y100.149 E74.53961
G0 F9000 X105.759 Y100.149
G1 F1800 X103.649 Y102.259 E74.6587
G0 F9000 X103.649 Y101.693
G1 F1800 X105.194 Y100.149 E74.74588
G0 F9000 X104.628 Y100.149
G1 F1800 X103.649 Y101.128 E74.80114
G0 F9000 X103.649 Y100.562
G1 F1800 X104.062 Y100.149 E74.82445
G0 F9000 X104.062 Y99.8
G1 F2400 E71.82445
;MESH:NONMESH
G0 F300 X104.062 Y99.8 Z0.78
G0 F9000 X104.062 Y99.71
G0 X116.718 Y99.782
G0 X116.9 Y120.4
;TIME_ELAPSED:85.557030
;LAYER:2
M106 S170
;TYPE:WALL-INNER
;MESH:dupontHolder.stl
G1 F2400 E74.82445
G1 X103.1 Y120.4 E75.37524
G1 X103.1 Y99.6 E76.20541
G1 X116.9 Y99.6 E76.7562
G1 X116.9 Y120.4 E77.58638
G0 F12000 X117.3 Y120.8
;TYPE:WALL-OUTER
G1 F2400 X102.7 Y120.8 E78.16909
G1 X102.7 Y99.2 E79.0312
G1 X117.3 Y99.2 E79.61391
G1 X117.3 Y120.8 E80.47602
G0 F12000 X117.03 Y120.53
G0 X116.79 Y120.01
G0 X116.51 Y120.01
;TYPE:SKIN
G1 F2400 X103.49 Y120.01 E80.99567
G1 X103.49 Y99.99 E81.79471
G1 X116.51 Y99.99 E82.31437
G1 X116.51 Y120.01 E83.11341
G0 F12000 X116.79 Y120.01
G0 X104.009 Y120.29
G0 X104.009 Y119.848
G1 F2400 X103.649 Y119.488 E83.13373
G0 F12000 X103.649 Y118.922
G1 F2400 X104.575 Y119.848 E83.186
G0 F12000 X105.141 Y119.848
G1 F2400 X103.649 Y118.356 E83.27021
G0 F12000 X103.649 Y117.791
G1 F2400 X105.706 Y119.848 E83.38632
G0 F12000 X106.272 Y119.848
G1 F2400 X103.649 Y117.225 E83.53437
G0 F12000 X103.649 Y116.659
G1 F2400 X106.838 Y119.848 E83.71437
G0 F12000 X107.403 Y119.848
G1 F2400 X103.649 Y116.094 E83.92627
G0 F12000 X103.649 Y115.528
G1 F2400 X107.969 Y119.848 E84.17011
G0 F12000 X108.535 Y119.848
G1 F2400 X103.649 Y114.962 E84.44589
G0 F12000 X103.649 Y114.397
G1 F2400 X109.1 Y119.848 E84.75357
G0 F12000 X109.666 Y119.848
G1 F2400 X103.649 Y113.831 E85.0932
G0 F12000 X103.649 Y113.265
G1 F2400 X110.232 Y119.848 E85.46477
G0 F12000 X110.797 Y119.848
G1 F2400 X103.649 Y112.7 E85.86823
G0 F12000 X103.649 Y112.134
G1 F2400 X111.363 Y119.848 E86.30364
G0 F12000 X111.929 Y119.848
G1 F2400 X103.649 Y111.568 E86.771
G0 F12000 X103.649 Y111.003
G1 F2400 X112.495 Y119.848 E87.27028
G0 F12000 X113.06 Y119.848
G1 F2400 X103.649 Y110.437 E87.80148
G0 F12000 X103.649 Y109.871
G1 F2400 X113.626 Y119.848 E88.36462
G0 F12000 X114.192 Y119.848
G1 F2400 X103.649 Y109.305 E88.95972
G0 F12000 X103.649 Y108.74
G1 F2400 X114.757 Y119.848 E89.5867
G0 F12000 X115.323 Y119.848
G1 F2400 X103.649 Y108.174 E90.24563
G0 F12000 X103.649 Y107.608
G1 F2400 X115.889 Y119.848 E90.93651
G0 F12000 X116.35 Y119.744
G1 F2400 X103.649 Y107.043 E91.65341
G0 F12000 X103.649 Y106.477
G1 F2400 X116.35 Y119.178 E92.37031
G0 F12000 X116.35 Y118.612
G1 F2400 X103.649 Y105.911 E93.08721
G0 F12000 X103.649 Y105.346
G1 F2400 X116.35 Y118.047 E93.80411
G0 F12000 X116.35 Y117.481
G1 F2400 X103.649 Y104.78 E94.52101
G0 F12000 X103.649 Y104.214
G1 F2400 X116.35 Y116.915 E95.23791
G0 F12000 X116.35 Y116.35
G1 F2400 X103.649 Y103.649 E95.9548
G0 F12000 X103.649 Y103.083
G1 F2400 X116.35 Y115.784 E96.6717
G0 F12000 X116.35 Y115.218
G1 F2400 X103.649 Y102.517 E97.3886
G0 F12000 X103.649 Y101.952
G1 F2400 X116.35 Y114.653 E98.1055
G0 F12000 X116.35 Y114.087
G1 F2400 X103.649 Y101.386 E98.8224
G0 F12000 X103.649 Y100.82
G1 F2400 X116.35 Y113.521 E99.5393
G0 F12000 X116.35 Y112.956
G1 F2400 X103.649 Y100.255 E100.2562
G0 F12000 X104.11 Y100.15
G1 F2400 X116.35 Y112.39 E100.94708
G0 F12000 X116.35 Y111.824
G1 F2400 X104.675 Y100.15 E101.60604
G0 F12000 X105.241 Y100.15
G1 F2400 X116.35 Y111.259 E102.23308
G0 F12000 X116.35 Y110.693
G1 F2400 X105.807 Y100.15 E102.82817
G0 F12000 X106.372 Y100.15
G1 F2400 X116.35 Y110.127 E103.39134
G0 F12000 X116.35 Y109.561
G1 F2400 X106.938 Y100.15 E103.92257
G0 F12000 X107.504 Y100.15
G1 F2400 X116.35 Y108.996 E104.42188
G0 F12000 X116.35 Y108.43
G1 F2400 X108.069 Y100.15 E104.88926
G0 F12000 X108.635 Y100.15
G1 F2400 X116.35 Y107.864 E105.3247
G0 F12000 X116.35 Y107.299
G1 F2400 X109.201 Y100.15 E105.72822
G0 F12000 X109.767 Y100.15
G1 F2400 X116.35 Y106.733 E106.0998
G0 F12000 X116.35 Y106.167
G1 F2400 X110.332 Y100.15 E106.43945
G0 F12000 X110.898 Y100.15
G1 F2400 X116.35 Y105.602 E106.74718
G0 F12000 X116.35 Y105.036
G1 F2400 X111.464 Y100.15 E107.02297
G0 F12000 X112.029 Y100.15
G1 F2400 X116.35 Y104.47 E107.26684
G0 F12000 X116.35 Y103.905
G1 F2400 X112.595 Y100.15 E107.47879
G0 F12000 X113.161 Y100.15
G1 F2400 X116.35 Y103.339 E107.65879
G0 F12000 X116.35 Y102.773
G1 F2400 X113.726 Y100.15 E107.80687
G0 F12000 X114.292 Y100.15
G1 F2400 X116.35 Y102.208 E107.92303
G0 F12000 X116.35 Y101.642
G1 F2400 X114.858 Y100.15 E108.00725
G0 F12000 X115.423 Y100.15
G1 F2400 X116.35 Y101.076 E108.05954
G0 F12000 X116.35 Y100.51
G1 F2400 X115.989 Y100.15 E108.07989
G0 F12000 X115.989 Y99.8
;MESH:NONMESH
G0 F300 X115.989 Y99.8 Z1.02
G0 F12000 X115.989 Y99.71
G0 X116.718 Y99.782
G0 X116.9 Y120.4
;TIME_ELAPSED:114.261279
;LAYER:3
M106 S255
;TYPE:WALL-INNER
;MESH:dupontHolder.stl
G1 F2400 X103.1 Y120.4 E108.63068
G1 X103.1 Y99.6 E109.46085
G1 X116.9 Y99.6 E110.01164
G1 X116.9 Y120.4 E110.84181
G0 F12000 X117.3 Y120.8
;TYPE:WALL-OUTER
G1 F2400 X102.7 Y120.8 E111.42453
G1 X102.7 Y99.2 E112.28663
G1 X117.3 Y99.2 E112.86935
G1 X117.3 Y120.8 E113.73145
G0 F12000 X117.03 Y120.53
G0 X116.79 Y120.01
G0 X116.51 Y120.01
;TYPE:SKIN
G1 F2400 X103.49 Y120.01 E114.25111
G1 X103.49 Y99.99 E115.05015
G1 X116.51 Y99.99 E115.56981
G1 X116.51 Y120.01 E116.36885
G0 F12000 X116.041 Y119.849
G1 F2400 X116.349 Y119.541 E116.38623
G0 F12000 X116.349 Y118.975
G1 F2400 X115.475 Y119.849 E116.43557
G0 F12000 X114.909 Y119.849
G1 F2400 X116.349 Y118.409 E116.51685
G0 F12000 X116.349 Y117.844
G1 F2400 X114.344 Y119.849 E116.63002
G0 F12000 X113.778 Y119.849
G1 F2400 X116.349 Y117.278 E116.77514
G0 F12000 X116.349 Y116.712
G1 F2400 X113.212 Y119.849 E116.9522
G0 F12000 X112.647 Y119.849
G1 F2400 X116.349 Y116.147 E117.16116
G0 F12000 X116.349 Y115.581
G1 F2400 X112.081 Y119.849 E117.40206
G0 F12000 X111.515 Y119.849
G1 F2400 X116.349 Y115.015 E117.67491
G0 F12000 X116.349 Y114.45
G1 F2400 X110.95 Y119.849 E117.97966
G0 F12000 X110.384 Y119.849
G1 F2400 X116.349 Y113.884 E118.31635
G0 F12000 X116.349 Y113.318
G1 F2400 X109.818 Y119.849 E118.68499
G0 F12000 X109.252 Y119.849
G1 F2400 X116.349 Y112.753 E119.08554
G0 F12000 X116.349 Y112.187
G1 F2400 X108.687 Y119.849 E119.51802
G0 F12000 X108.121 Y119.849
G1 F2400 X116.349 Y111.621 E119.98244
G0 F12000 X116.349 Y111.056
G1 F2400 X107.555 Y119.849 E120.47879
G0 F12000 X106.99 Y119.849
G1 F2400 X116.349 Y110.49 E121.00705
G0 F12000 X116.349 Y109.924
G1 F2400 X106.424 Y119.849 E121.56726
G0 F12000 X105.858 Y119.849
G1 F2400 X116.349 Y109.359 E122.15939
G0 F12000 X116.349 Y108.793
G1 F2400 X105.293 Y119.849 E122.78344
G0 F12000 X104.727 Y119.849
G1 F2400 X116.349 Y108.227 E123.43943
G0 F12000 X116.349 Y107.661
G1 F2400 X104.161 Y119.849 E124.12738
G0 F12000 X103.649 Y119.795
G1 F2400 X116.349 Y107.096 E124.84419
G0 F12000 X116.349 Y106.53
